icons/folder_type_audio.svg

<svg xmlns="http://www.w3.org/2000/svg" viewBox="0 0 32 32"><path d="M27.5 5.5h-9.3l-2.1 4.2H4.4v16.8h25.2v-21Zm0 4.2h-8.2l1.1-2.1h7.1Z" style="fill:#5555bf"/><path d="M21.422 13a.675.675 0 0 0-.427.174l-5.7 4.74a.869.869 0 0 1-.716.246h-3.673a.9.9 0 0 0-.906.894s0 .008 0 .012v5.87a.9.9 0 0 0 .9.9h3.68a.869.869 0 0 1 .716.246l5.7 4.74c.391.325.811.168.811-.217V13.391a.371.371 0 0 0-.354-.391Zm7.328 1.725-1.343 1.345a11.031 11.031 0 0 1 0 11.883l1.339 1.332a12.893 12.893 0 0 0 .004-14.561Zm-3.25 3.241L24.179 19.3a4.526 4.526 0 0 1 0 5.428l1.321 1.316a6.416 6.416 0 0 0 .008-8.077Z" style="fill:#00007f"/></svg>

<svg xmlns="http://www.w3.org/2000/svg" viewBox="0 0 32 32"><title>folder_type_audio</title><path d="M27.5,5.5H18.2L16.1,9.7H4.4V26.5H29.6V5.5Zm0,4.2H19.3l1.1-2.1h7.1Z" style="fill:#5555bf"/><path d="M21.422,13a.675.675,0,0,0-.427.174l-5.7,4.74a.869.869,0,0,1-.716.246H10.906a.9.9,0,0,0-.906.894s0,.008,0,.012v5.87a.9.9,0,0,0,.9.9h3.68a.869.869,0,0,1,.716.246l5.7,4.74c.391.325.811.168.811-.217V13.391A.371.371,0,0,0,21.453,13Zm7.328,1.725-1.343,1.345a11.031,11.031,0,0,1,0,11.883l1.339,1.332A12.893,12.893,0,0,0,28.75,14.724ZM25.5,17.966,24.179,19.3a4.526,4.526,0,0,1,0,5.428L25.5,26.044a6.416,6.416,0,0,0,.008-8.077Z" style="fill:#00007f"/></svg>
